X:1
T:Row Row Row Your Boat
C:Traditional
M:6/8
L:1/8
Q:1/8=180
K:G
G3 G3 | G2A B3 | BAB c3 | d6 |
dedc BA | dedc BA | d3 c3 | B2A2G2 |]
w: Row row | row your boat | gent-ly down the | stream | Mer-ri-ly mer-ri-ly | Mer-ri-ly mer-ri-ly | life is | but a dream |
